X:125
%%musicspace -15
%%titlespace -15
T:Oban Bay
M:6/8
L:1/8
K:D
e | "D"f2e dcB | A2F D2E | FGF FED | "A7"F2E E2A | "D"f2e dcB | A2F D2E | 
"D"FGF "A7"EDE | "D"D3- D2 :|]|: A | "D"d2A A2A | "G"BdB "D"A3 | "D"d2d "A7"efg | "D"f3 "A7"e3 | 
"D"d2A A2A | "G"BdB "A7"A2g | "D"f2A "A7"ABc | "D"d3- d2 :|]|: f | "D"afd dfa | "A7"gec ceg | 
"D"fdd dcd | "A7"ecA A2G | "D"FAd FAd | "G"GBd GBd | "A7"Agf edc | "D"d3- d2 :|]

%%newpage
%%scale 0.79

